X: 44
T: Bear Dance Song (d)
C: Anon.
%%abc-version 2.0
%%abcx-abcm2ps-target-version 5.9.1 (29 Sep 2008)
%%abc-creator hum2abc beta
%%abcx-conversion-date 2020/08/10 20:56:09
%%abc-copyright Electronic Copyright 2000 David Huron
%%abc-edited-by David Huron
%%abcx-initial-encoding-date August 28, 2000
%%humdrum-veritas 2299468128
%%humdrum-veritas-data 2067215044
%%linebreak <none>
%%barnumbers 0
L: 1/8
M: 2/4
Q: 1/4=88
K: G clef=bass
G,> G, G,/ G,3/ | 
A,> G, G,/ G,3/ | 
G,> G, G, z | 
G,> G, G,/ G,3/ | 
A,> G, G,/ G,3/ | 
G,> G, G, z | 
G,> G, G,/ G,3/ | 
A,> G, G,/ G,3/ | 
G,> G, G, z | 
G, D D B,[M:3/4] | 
A, B, G, E, E, z[M:2/4] | 
E, D D B,[M:3/4] | 
A, B, G, G, G, z | 
G,< G, A, G, G, z[M:2/4] | 
A,< G, G,/ G,3/ | 
A, G, G, G, |]  


